X: 43
T: 43. Liebester Gott, wann werd ich sterben
N: Derived from chor043.krn
C: Johann Sebastian Bach
%%abc-version 2.0
%%abcx-abcm2ps-target-version 5.9.1 (29 Sep 2008)
%%abc-creator hum2abc beta
%%abcx-conversion-date 2019/03/11 17:28:17
%%abc-edited-by Craig Stuart Sapp
%%humdrum-veritas 1604087167
%%humdrum-veritas-data 4028191665
%%
%%barnumbers 0
L: 1/4
M: C
%%staves [1 2 3 4]
V: 1 clef=treble
V: 2 clef=treble
V: 3 clef=treble-8
V: 4 clef=bass
K: E
[V:1] zB/B/eB | 
[V:2] z2zG/G/ | 
[V:3] z2ze/e/ | 
[V:4] z2zE,/E,/ | 
[V:1] cBA3/B//A// | 
[V:2] AA/G/ G/F//E// F/F/ | 
[V:3] eecB | 
[V:4] A,E,F,D, | 
[V:1] G!fermata!FzB/A/ | 
[V:2] E!fermata!Dz2 | 
[V:3] B!fermata!Bz2 | 
[V:4] E,!fermata!B,,z2 | 
[V:1] Gc/B/ ^A/F/B- | 
[V:2] zGFF | 
[V:3] ze/d/cd | 
[V:4] zE,-E,/D,/C,/B,,/ | 
[V:1] B^A!fermata!B2 :|]  
[V:2] FF!fermata!F2 :|]  
[V:3] cc!fermata!d2 :|]  
[V:4] F,/E,/F,!fermata!B,,2 :|]  
[V:1] zF/G/=AG | 
[V:2] zD/E/FE/F/ | 
[V:3] z2ze/d/ | 
[V:4] z2zC,/D,/ | 
[V:1] c3/d/!fermata!^B2 | 
[V:2] G/F/ G/A/!fermata!G2 | 
[V:3] c/a/g/f/!fermata!d2 | 
[V:4] E,/D,/E,/F,/!fermata!G,,G,/F,/ | 
[V:1] zc/B/^AB | 
[V:2] zGFF | 
[V:3] ze/d/cd | 
[V:4] E,3D,/E,/ | 
[V:1] B^A!fermata!BF/F/ | 
[V:2] FF!fermata!Fz | 
[V:3] c/B/c!fermata!dz | 
[V:4] F,F,,!fermata!B,,z | 
[V:1] B3/=A/Gc | 
[V:2] zF2E | 
[V:3] zd/d/Bc | 
[V:4] zB,,/B,,/ E,/D,/C,/B,,/ | 
[V:1] ^Bc2B | 
[V:2] F/G/^AG2 | 
[V:3] ded2 | 
[V:4] A,,/G,,/^^F,,G,,2 | 
[V:1] c2ze/=B/ | 
[V:2] GG/D/E2- | 
[V:3] ee/^B/c3/=d/ | 
[V:4] C,2zC/G,/ | 
[V:1] cG/A/B3/A/ | 
[V:2] EE^D/E/F- | 
[V:3] c2B2- | 
[V:4] A,/B,/CG,D, | 
[V:1] GF/E/DE- | 
[V:2] F/E/ D/E/B,^C | 
[V:3] B=cF=G | 
[V:4] E,A,,2^A,, | 
[V:1] ED!fermata!E2 |]  
[V:2] B,2!fermata!B,2 |]  
[V:3] F/E/F!fermata!^G2 |]  
[V:4] B,,2!fermata!E,2 |]  



